assets/icons/qvision/missed_video_call.svg

<svg xmlns="http://www.w3.org/2000/svg" height="24" viewBox="0 0 24 24" width="24"><path d="M0 0h24v24H0V0z" fill="none"/><path d="M17 10.5V7c0-.55-.45-1-1-1H4c-.55 0-1 .45-1 1v10c0 .55.45 1 1 1h12c.55 0 1-.45 1-1v-3.5l4 4v-11l-4 4zM10 15l-3.89-3.89v2.55H5V9.22h4.44v1.11H6.89l3.11 3.1 4.22-4.22.78.79-5 5z"/></svg>

<svg width="24" height="24" viewBox="0 0 24 24" fill="none" xmlns="http://www.w3.org/2000/svg">
<g clip-path="url(#clip0_147_1513)">
<path d="M17 10.5V7C17 6.45 16.55 6 16 6H4C3.45 6 3 6.45 3 7V17C3 17.55 3.45 18 4 18H16C16.55 18 17 17.55 17 17V13.5L21 17.5V6.5L17 10.5ZM10 15L6.11 11.11V13.66H5V9.22H9.44V10.33H6.89L10 13.43L14.22 9.21L15 10L10 15Z" fill="#323232"/>
</g>
<defs>
<clipPath id="clip0_147_1513">
<rect width="24" height="24" fill="white"/>
</clipPath>
</defs>
</svg>
